icons/common/glyph_japanese-candles_m.svg

<svg xmlns="http://www.w3.org/2000/svg" width="24" height="24" viewBox="0 0 24 24" fill="none"><rect width="24" height="24" fill="none"/>
<path d="M7 2H5V10H3C2.44775 10 2 10.4478 2 11V18H5V22H7V18H10V11C10 10.4478 9.55225 10 9 10H7V2Z" fill="black"/>
<path d="M19 2H17V6H15C14.4478 6 14 6.44775 14 7V18H17V22H19V18H22V7C22 6.44775 21.5522 6 21 6H19V2Z" fill="black"/>
</svg>

<svg xmlns="http://www.w3.org/2000/svg" width="24" height="24" fill="none" viewbox="0 0 24 24"><rect width="24" height="24" fill="none"/><path d="M0 0h24v24H0z"/><path d="M7 2H5v8H3a1 1 0 0 0-1 1v7h3v4h2v-4h3v-7a1 1 0 0 0-1-1H7V2zM19 2h-2v4h-2a1 1 0 0 0-1 1v11h3v4h2v-4h3V7a1 1 0 0 0-1-1h-2V2z" fill="#000"/></svg>
